X: 31838
T: Paudeen O'Rafferty
R: jig
M: 6/8
K: Gmajor
|:D|GAB D2G|GAB AGE|GAB D2E|GAG GED|
GAB D2E|cBc ded|dBG AGA|BGF G2:|
|:B|GBB FAA|GAB cBA|GBB FAA|EDE GFE|
GBB FAA|cBc ded|dBG AGA|BGF G2:|

